!!!COM: Mozart, Wolfgang Amadeus
!!!CDT: 1756/1/27/-1791/12/5/
!!!OTL: String Quartet No. 1 in G Major
!!!OMD: Adagio
!!!OMV: Mvmt. 1
!!!SCT1: K<sup>1</sup> 80
!!!SCA: Chronologisch-thematisches Verzeichnis sämtlicher Tonwerke Wolfgang Amade Mozarts (L. von Köchel; 1862, 2/1905, 3/1937, 1947)
!!!SCT2: K<sup>6</sup> 73f
!!!YOR: Breitkopf & Härtel Edition
!!!ENC: Edmund Correia, Jr.
!!!OCY: Österreich
**kern	**dynam	**kern	**dynam	**kern	**dynam	**kern	**dynam
*I:Violoncello	*I:Violoncello	*I:Viola	*I:Viola	*I:Violino II	*I:Violino II	*I:Violino I	*I:Violino I
*>[A,A,B,B]	*	*>[A,A,B,B]	*	*>[A,A,B,B]	*	*>[A,A,B,B]	*
*>A	*	*>A	*	*>A	*	*>A	*
*clefF4	*	*clefC3	*	*clefG2	*	*clefG2	*
*k[f#]	*	*k[f#]	*	*k[f#]	*	*k[f#]	*
*G:	*	*G:	*	*G:	*	*G:	*
*M3/4	*	*M3/4	*	*M3/4	*	*M3/4	*
! Adagio	!	! Adagio	!	! Adagio	!	! Adagio	!
8G\Lxx	p	8B/Lxx	p	2.r	.	4dd\xx	p
8G\	.	8B/	.	.	.	.	.
8G\	.	8B/	.	.	.	4.dd\	.
8G\	.	8B/	.	.	.	.	.
8G\	.	8B/	.	.	.	.	.
8G\J	.	8B/J	.	.	.	8gg\	.
=2	=2	=2	=2	=2	=2	=2	=2
!	!	!	!	!	!	! 16aaP/	!
8A\L	.	8c/L	.	2.r	.	4ggpT\	.
8A\	.	8c/	.	.	.	.	.
8A\	.	8c/	.	.	.	(4.ff#\	.
8A\	.	8c/	.	.	.	.	.
8A\	.	8c/	.	.	.	.	.
8G\J	.	8B/J	.	.	.	8gg\)	.
=3	=3	=3	=3	=3	=3	=3	=3
8F#\L	.	8A/L	.	[2.ddd\xx	p	(8aa\L	.
8F#\	.	8A/	.	.	.	8ff#\J)	.
8F#\	.	8A/	.	.	.	4.dd\	.
8F#\	.	8A/	.	.	.	.	.
8F#\	.	8A/	.	.	.	.	.
8F#\J	.	8A/J	.	.	.	8cc\	.
=4	=4	=4	=4	=4	=4	=4	=4
8G\L	.	4A/	.	4.ddd\]	.	4cc\	.
8G\	.	.	.	.	.	.	.
8G\	.	4G/	.	.	.	4b\	.
8G\	.	.	.	(16dd\LL	.	.	.
.	.	.	.	16gg\JJ)	.	.	.
8G\	.	4r	.	16gg'\LL	.	4r	.
.	.	.	.	(16bb\	.	.	.
8G\J	.	.	.	16ccc\	.	.	.
.	.	.	.	16ddd\JJ)	.	.	.
=5	=5	=5	=5	=5	=5	=5	=5
8G\L	.	2.r	.	8eee\	.	8ccc\	.
8G\	.	.	.	4ee\	.	4cc\	.
8G\	.	.	.	.	.	.	.
8G\	.	.	.	(16gg\LL	.	(16ee\LL	.
.	.	.	.	16ff#\JJ)	.	16dd\JJ)	.
8G\	.	.	.	(16aa\LL	.	(16ff#\LL	.
.	.	.	.	16gg\)	.	16ee\)	.
8G\J	.	.	.	(16ff#\	.	(16dd\	.
.	.	.	.	16ee\JJ)	.	16cc\JJ)	.
=6	=6	=6	=6	=6	=6	=6	=6
8G\L	.	8g\	.	16dd'\LL	.	16b'\LL	.
.	.	.	.	16b'\	.	16dd'\	.
8G\	.	4G/	.	16cc'\	.	16ee'\	.
.	.	.	.	16dd'\JJ	.	16ff#'\JJ	.
8G\	.	.	.	16ee'\LL	.	16gg'\LL	.
.	.	.	.	16ff#'\	.	16aa'\	.
8G\J	.	8G/	.	16gg'\	.	16bb'\	.
.	.	.	.	16aa'\JJ	.	16ccc'\JJ	.
16G'\LL	.	16r	.	[4bb\	.	[4ddd\	.
16G'\	.	16B'/LL	.	.	.	.	.
16A'\	.	16c'/	.	.	.	.	.
16B'\JJ	.	16d'/JJ	.	.	.	.	.
=7	=7	=7	=7	=7	=7	=7	=7
8c\L	.	8e\L	.	8bb\L]	.	8ddd\L]	.
8C\	.	8e\	.	(16ccc\L	.	(16eee\L	.
.	.	.	.	16bb\JJ)	.	16ddd\JJ)	.
8C\	.	8e\	.	4aa\	.	4ccc\	.
8C\	.	8e\	.	.	.	.	.
8C#\	.	8e\	.	4gg\	.	4bb\	.
8C#\J	.	8e\J	.	.	.	.	.
=8	=8	=8	=8	=8	=8	=8	=8
4D\	.	4d\	.	4ggT\	.	4bbt\	.
8r	.	4r	.	4ff#\	.	4aa\	.
8D\L	.	.	.	.	.	.	.
8F#\	.	4r	.	4r	.	4r	.
8A\J	.	.	.	.	.	.	.
=9	=9	=9	=9	=9	=9	=9	=9
8d\L	.	8f#\L	.	2.r	.	4.aa\	.
8d\	.	8f#\	.	.	.	.	.
8d\	.	8f#\	.	.	.	.	.
8d\	.	8f#\	.	.	.	(16bb\LL	.
.	.	.	.	.	.	16aa\JJ)	.
8d\	.	8f#\	.	.	.	(16ddd\LL	.
.	.	.	.	.	.	16ccc#\)	.
8d\J	.	8f#\J	.	.	.	(16bb\	.
.	.	.	.	.	.	16aa\JJ)	.
=10	=10	=10	=10	=10	=10	=10	=10
8c#\L	.	8e\L	.	2.r	.	(8.aa\L	.
8c#\	.	8e\	.	.	.	.	.
.	.	.	.	.	.	16bb\Jk	.
8c#\	.	8e\	.	.	.	8aa\L)	.
8c#\	.	8e\	.	.	.	8aa'\	.
8c#\	.	8e\	.	.	.	8aa'\	.
8c#\J	.	8e\J	.	.	.	8aa'\J	.
=11	=11	=11	=11	=11	=11	=11	=11
8B\L	.	4d\	.	[2.ddd\	.	(16aa\LL	.
.	.	.	.	.	.	16ff#\J	.
8B\	.	.	.	.	.	8gg\J)	.
8B\	.	4r	.	.	.	8r	.
8B\	.	.	.	.	.	8gg\L	.
8B\	.	4r	.	.	.	8gg\	.
8B\J	.	.	.	.	.	8gg\J	.
=12	=12	=12	=12	=12	=12	=12	=12
8A\L	.	2.r	.	2.ddd\]	.	(16gg\LL	.
.	.	.	.	.	.	16ee\J	.
8A\	.	.	.	.	.	8ff#\J)	.
8A\	.	.	.	.	.	8r	.
8A\	.	.	.	.	.	8ff#\L	.
8A\	.	.	.	.	.	8ff#\	.
8A\J	.	.	.	.	.	8ff#\J	.
=13	=13	=13	=13	=13	=13	=13	=13
4G#\	.	8e\	.	24ddd\LL	.	4ee\	.
.	.	.	.	24bb\	.	.	.
.	.	.	.	24aa\JJ	.	.	.
.	.	4e\	.	24gg#\LL	.	.	.
.	.	.	.	24ff#\	.	.	.
.	.	.	.	24ee\JJ	.	.	.
4r	.	.	.	24dd\LL	.	4r	.
.	.	.	.	24b\	.	.	.
.	.	.	.	24a\JJ	.	.	.
.	.	4e\	.	24g#/LL	.	.	.
.	.	.	.	24f#/	.	.	.
.	.	.	.	24e/JJ	.	.	.
8r	.	.	.	16dd\LL	.	4r	.
.	.	.	.	16b\	.	.	.
8G#\	.	8e\	.	16bb\	.	.	.
.	.	.	.	16dd\JJ	.	.	.
=14	=14	=14	=14	=14	=14	=14	=14
4.A\	.	(16e\LL	.	(16cc#\LL	.	2.r	.
.	.	16d\	.	16b\	.	.	.
.	.	16c#\	.	16a\	.	.	.
.	.	16d\JJ)	.	16b\JJ)	.	.	.
.	.	8c#\L	.	4a/	.	.	.
8Gn\L	.	(8b\	.	.	.	.	.
8F#\	.	8a\)	.	4r	.	.	.
8E\J	.	8c#\J	.	.	.	.	.
=15	=15	=15	=15	=15	=15	=15	=15
4.D\	.	(16d\LL	.	[2.aa\	.	(16ff#\LL	.
.	.	16c#\	.	.	.	16ee\	.
.	.	16d\	.	.	.	16ff#\	.
.	.	16e\JJ	.	.	.	16gg\JJ	.
.	.	8f#\L)	.	.	.	8aa\L)	.
8d\L	.	8f#'\	.	.	.	8dd'\	.
8d\	.	8f#'\	.	.	.	8dd'\	.
8d\J	.	8f#'\J	.	.	.	8dd'\J	.
=16	=16	=16	=16	=16	=16	=16	=16
8c#\L	.	(16g\LL	.	2.aa\]	.	(16gg\LL	.
.	.	16e\)	.	.	.	16ee\)	.
8d\J	.	(16f#\	.	.	.	(16ff#\	.
.	.	16d\JJ)	.	.	.	16dd\JJ)	.
!	!	!	!	!	!	! 16ddP/	!
[4A\	.	8c#\L	.	.	.	8cc#p\L	.
.	.	(16e\L	.	.	.	(16ee\L	.
.	.	16c#\JJ)	.	.	.	16cc#\JJ)	.
16A\LL]	.	16A\LL	.	.	.	4a/	.
16G\	.	(16b\	.	.	.	.	.
16F#\	.	16a\)	.	.	.	.	.
16E\JJ	.	16c#\JJ	.	.	.	.	.
=17	=17	=17	=17	=17	=17	=17	=17
4.D\	.	(16d\LL	.	(16ff#\LL	.	[2.aa\	.
.	.	16c#\	.	16ee\	.	.	.
.	.	16d\	.	16ff#\	.	.	.
.	.	16e\JJ	.	16gg\JJ	.	.	.
.	.	8f#\L)	.	8aa\L)	.	.	.
8d\L	.	8f#'\	.	8dd'\	.	.	.
8d\	.	8f#'\	.	8dd'\	.	.	.
8d\J	.	8f#'\J	.	8dd'\J	.	.	.
=18	=18	=18	=18	=18	=18	=18	=18
8c#\L	.	(16g\LL	.	(16gg\LL	.	2.aa\]	.
.	.	16e\)	.	16ee\)	.	.	.
8d\J	.	(16f#\	.	(16ff#\	.	.	.
.	.	16d\JJ)	.	16dd\JJ)	.	.	.
[4A\	.	8c#\L	.	8cc#\L	.	.	.
.	.	(16e\L	.	(16ee\L	.	.	.
.	.	16c#\JJ)	.	16cc#\JJ)	.	.	.
16A\LL]	.	16A\LL	.	4a/	.	.	.
16G\	.	(16b\	.	.	.	.	.
16F#\	.	16a\)	.	.	.	.	.
16E\JJ	.	16c#\JJ	.	.	.	.	.
=19	=19	=19	=19	=19	=19	=19	=19
8D\L	.	8d\L	.	8f#/L	.	16r	.
.	.	.	.	.	.	8dd\L	.
8D\	.	8d\	.	8f#/	.	.	.
.	.	.	.	.	.	8ff#\	.
8F#\	.	8d\	.	8a/	.	.	.
.	.	.	.	.	.	8aa\	.
8F#\	.	8d\	.	8a/	.	.	.
.	.	.	.	.	.	8ddd\	.
8F#\	.	8d\	.	8a/	.	.	.
.	.	.	.	.	.	8cccn\	.
8F#\J	.	8d\J	.	8a/J	.	.	.
.	.	.	.	.	.	16aa\Jk	.
=20	=20	=20	=20	=20	=20	=20	=20
8G\	.	8d\	.	8g/	.	24bb\LL	.
.	.	.	.	.	.	24ddd\	.
.	.	.	.	.	.	24bb\JJ	.
8r	.	8r	.	8r	.	24gg\LL	.
.	.	.	.	.	.	24dd\	.
.	.	.	.	.	.	24b\JJ	.
4r	.	4r	.	4r	.	24g\LL	.
.	.	.	.	.	.	24dd\	.
.	.	.	.	.	.	24b\JJ	.
.	.	.	.	.	.	24g/LL	.
.	.	.	.	.	.	24d/	.
.	.	.	.	.	.	24B/JJ	.
8r	.	8r	.	8r	.	8G/L	.
8G\	.	8g\	.	(16dd\LL	.	(16bb\L	.
.	.	.	.	16ee\JJ)	.	16gg\JJ)	.
=21	=21	=21	=21	=21	=21	=21	=21
8A\L	.	8a\L	.	8dd\	.	(32ff#\LLL	.
.	.	.	.	.	.	32aa\	.
.	.	.	.	.	.	32gg\	.
.	.	.	.	.	.	32ff#\JJJ	.
8A\	.	8a\	.	4dd\	.	32gg\LLL	.
.	.	.	.	.	.	32aa\	.
.	.	.	.	.	.	32bb\	.
.	.	.	.	.	.	32ccc#\JJJ	.
8A\	.	8a\	.	.	.	32ddd\LLL	.
.	.	.	.	.	.	32ccc#\	.
.	.	.	.	.	.	32ddd\	.
.	.	.	.	.	.	32ccc#\JJJ	.
8A\	.	8a\	.	4dd\	.	32ddd\LLL	.
.	.	.	.	.	.	32aa\	.
.	.	.	.	.	.	32ff#\	.
.	.	.	.	.	.	32dd\JJJ)	.
8AA\	.	8a\	.	.	.	(8.eeT\L	.
8AA\J	.	8a\J	.	8cc#\	.	.	.
.	.	.	.	.	.	32dd\LL	.
.	.	.	.	.	.	32ee\JJJ)	.
=22	=22	=22	=22	=22	=22	=22	=22
4D\	.	4a\ 4f#\	.	4dd\	.	8dd\L	.
.	.	.	.	.	.	(48ee'\LL	.
.	.	.	.	.	.	48ff#'\	.
.	.	.	.	.	.	48gg'\	.
.	.	.	.	.	.	48aa'\	.
.	.	.	.	.	.	48bb'\	.
.	.	.	.	.	.	48ccc#'\JJJ)	.
16r	.	16r	.	4r	.	8ddd\	.
(16D/LL	.	(16f#\LL	.	.	.	.	.
16C#/	.	16e\	.	.	.	8r	.
16D/JJ	.	16f#\JJ	.	.	.	.	.
16E\LL	.	16g\LL	.	4r	.	4r	.
16D\	.	16f#\	.	.	.	.	.
16C#\	.	16e\	.	.	.	.	.
16D\JJ)	.	16f#\JJ)	.	.	.	.	.
=23	=23	=23	=23	=23	=23	=23	=23
4BB/	.	4f#\	.	8dd\L	.	2.r	.
.	.	.	.	(48ee'\LL	.	.	.
.	.	.	.	48ff#'\	.	.	.
.	.	.	.	48gg'\	.	.	.
.	.	.	.	48aa'\	.	.	.
.	.	.	.	48bb'\	.	.	.
.	.	.	.	48ccc#'\JJJ)	.	.	.
16r	.	16r	.	8ddd\	.	.	.
(16B\LL	.	(16d\LL	.	.	.	.	.
16A\	.	16c#\	.	8r	.	.	.
16B\JJ	.	16d\JJ	.	.	.	.	.
16c#\LL	.	16e\LL	.	4r	.	.	.
16B\	.	16d\	.	.	.	.	.
16A\	.	16c#\	.	.	.	.	.
16B\JJ)	.	16d\JJ)	.	.	.	.	.
=24	=24	=24	=24	=24	=24	=24	=24
4F#\	.	8d\L	.	2.aa\	.	2.cccn\	.
.	.	(48e'\LL	.	.	.	.	.
.	.	48f#'\	.	.	.	.	.
.	.	48g'\	.	.	.	.	.
.	.	48a'\	.	.	.	.	.
.	.	48b'\	.	.	.	.	.
.	.	48cc#x'\JJJ)	.	.	.	.	.
8r	.	8dd\L	.	.	.	.	.
8F#\L	.	8d\	.	.	.	.	.
8F#\	.	8d\	.	.	.	.	.
8F#\J	.	8d\J	.	.	.	.	.
=25	=25	=25	=25	=25	=25	=25	=25
!	!	!	!	! 16aaP/	!	! 16cccP/	!
8G\L	.	8d/L	.	8ggp\L	.	8bbp\L	.
8G\	.	8B/	.	16ff#\L	.	16aa\L	.
.	.	.	.	16ee\JJ	.	16gg\JJ	.
8A\	.	8A/	.	4dd\	.	4ff#\	.
8A\	.	8A/	.	.	.	.	.
8AA\	.	8A/	.	(8.cc#t\L	.	(8.eeT\L	.
8AA\J	.	8G/J	.	.	.	.	.
.	.	.	.	32b\LL	.	32dd\LL	.
.	.	.	.	32cc#\JJJ)	.	32ee\JJJ)	.
=26	=26	=26	=26	=26	=26	=26	=26
2.D\	.	8F#'\L	.	4dd\	.	8dd'/L	.
.	.	(8f#\	.	.	.	(8a/	.
.	.	8g\	.	4r	.	8b/	.
.	.	8f#\	.	.	.	8a/	.
.	.	8g\	.	16r	.	8b/	.
!	!	!	!	! 32aaP/	!	!	!
.	.	.	.	16ggp\LL	.	.	.
!	!	!	!	! 32ff#P/	!	!	!
.	.	8e\J)	.	16eep\	.	8g/J)	.
!	!	!	!	! 32ddP/	!	!	!
.	.	.	.	16cc#p\JJ	.	.	.
=27	=27	=27	=27	=27	=27	=27	=27
8D\L	.	2d\	.	8dd'/L	.	4f#/	.
(8F#\	.	.	.	(8a/	.	.	.
8G\	.	.	.	8b/	.	4r	.
8F#\	.	.	.	8a/	.	.	.
8G\	.	8r	.	8b/	.	16r	.
!	!	!	!	!	!	! 32aaP/	!
.	.	.	.	.	.	16ggp\LL	.
!	!	!	!	!	!	! 32ff#P/	!
8A\J)	.	8e\	.	8g/J)	.	16eep\	.
!	!	!	!	!	!	! 32ddP/	!
.	.	.	.	.	.	16cc#p\JJ	.
=28	=28	=28	=28	=28	=28	=28	=28
[2D\	.	(2e\	.	(2g/	.	(2cc#\	.
8D\]	.	8d\)	.	8f#/)	.	8dd\)	.
8r	.	8r	.	8r	.	8r	.
=29:!!:	=29:!!:	=:!!:	=:!!:	=29:!!:	=29:!!:	=29:!!:	=29:!!:
*>B	*	*>B	*	*>B	*	*>B	*
8D\L	.	[2.dd\	.	2.r	.	2.r	.
8F#\	.	.	.	.	.	.	.
8D\	.	.	.	.	.	.	.
8F#\	.	.	.	.	.	.	.
8D\	.	.	.	.	.	.	.
8F#\J	.	.	.	.	.	.	.
=30	=30	=30	=30	=30	=30	=30	=30
8E\L	.	4dd\]	.	2.gg\	.	2.r	.
8G\	.	.	.	.	.	.	.
8E\	.	2cc#\	.	.	.	.	.
8G\	.	.	.	.	.	.	.
8E\	.	.	.	.	.	.	.
8G\J	.	.	.	.	.	.	.
=31	=31	=31	=31	=31	=31	=31	=31
8F#\L	.	(4ccn\	.	(4aa\	.	2.ddd\	.
8D\	.	.	.	.	.	.	.
8G\	.	4b\	.	4gg\	.	.	.
8D\	.	.	.	.	.	.	.
8A\	.	4cc\)	.	4ff#\)	.	.	.
8D\J	.	.	.	.	.	.	.
=32	=32	=32	=32	=32	=32	=32	=32
8G\L	.	4b\	.	4.gg\	.	(4ddd\	.
8B\	.	.	.	.	.	.	.
8G\	.	8r	.	.	.	8ggg\L)	.
8GG\	.	(8d\L	.	(8bb\L	.	(8ddd\	.
8C\	.	8e\)	.	8aa\)	.	8ccc\)	.
8C#\J	.	8e'\J	.	8gg'\J	.	8bb'\J	.
=33	=33	=33	=33	=33	=33	=33	=33
4D\	.	4d\	.	4ggT\	.	4bbt\	.
8r	.	4r	.	4ff#\	.	4aa\	.
8d\L	.	.	.	.	.	.	.
8B\	.	4r	.	4r	.	4r	.
8A\J	.	.	.	.	.	.	.
=34	=34	=34	=34	=34	=34	=34	=34
8G#\L	.	8b\L	.	2.r	.	[4ee\	.
8G#\	.	8b\	.	.	.	.	.
8G#\	.	8b\	.	.	.	16ee\LL]	.
.	.	.	.	.	.	16ff#\	.
8G#\	.	8b\	.	.	.	16gg#\	.
.	.	.	.	.	.	16aa\JJ	.
8G#\	.	8b\	.	.	.	16bb\LL	.
.	.	.	.	.	.	16ccc\	.
8G#\J	.	8b\J	.	.	.	16ddd\	.
.	.	.	.	.	.	16bb\JJ	.
=35	=35	=35	=35	=35	=35	=35	=35
!	!	!	!	!	!	! 16dddP/	!
8A/L	.	4e\	.	24a\LL	.	4.cccp\	.
.	.	.	.	24ee\	.	.	.
.	.	.	.	24cc\JJ	.	.	.
8AA/	.	.	.	24a/LL	.	.	.
.	.	.	.	24e/	.	.	.
.	.	.	.	24c/JJ	.	.	.
8AA/	.	24r	.	8A/	.	.	.
.	.	24A/LL	.	.	.	.	.
.	.	24c/JJ	.	.	.	.	.
!	!	!	!	!	!	! 16bbP/	!
8AA/	.	24e\LL	.	8r	.	8aap\L	.
.	.	24c\	.	.	.	.	.
.	.	24e\JJ	.	.	.	.	.
8AA/	.	8a\L	.	8r	.	8eee\	.
8AA/J	.	8e\J	.	(8cc#\	.	8gg\J	.
=36	=36	=36	=36	=36	=36	=36	=36
8D\L	.	8f#\L	.	[4dd\)	.	4ff#\	.
8D\	.	8f#\	.	.	.	.	.
8D\	.	8f#\	.	16dd\LL]	.	4r	.
.	.	.	.	16ee\	.	.	.
8D\	.	8f#\	.	16ff#\	.	.	.
.	.	.	.	16gg\JJ	.	.	.
8D\	.	8f#\	.	16aa\LL	.	4r	.
.	.	.	.	16bb\	.	.	.
8D\J	.	8f#\J	.	16ccc\	.	.	.
.	.	.	.	16aa\JJ	.	.	.
=37	=37	=37	=37	=37	=37	=37	=37
!	!	!	!	! 16cccP/	!	!	!
8G/L	.	4g\	.	4.bbp\	.	24g/LL	.
.	.	.	.	.	.	24dd/	.
.	.	.	.	.	.	24b/JJ	.
8GG/	.	.	.	.	.	24g/LL	.
.	.	.	.	.	.	24d/	.
.	.	.	.	.	.	24B/JJ	.
8GG/	.	24r	.	.	.	8G/	.
.	.	24G/LL	.	.	.	.	.
.	.	24B/JJ	.	.	.	.	.
!	!	!	!	! 16aaP/	!	!	!
8GG/	.	24d/LL	.	8ggp\L	.	8r	.
.	.	24B/	.	.	.	.	.
.	.	24d/JJ	.	.	.	.	.
8GG/	.	8g\L	.	8ddd\	.	8r	.
8GG/J	.	8d\J	.	8b\J	.	(8ffn\	.
=38	=38	=38	=38	=38	=38	=38	=38
8C/L	.	8c\L	.	4cc\	.	8ee\)	.
8C/	.	8c\	.	.	.	4eee\	.
8C/	.	8c\	.	4r	.	.	.
!	!	!	!	!	!	! 16dddP/	!
8C/	.	8e\	.	.	.	8cccp\L	.
!	!	!	!	!	!	! 16bbP/	!
8C/	.	8e\	.	4r	.	8aap\	.
8C#/J	.	8e\J	.	.	.	8gg\J	.
=39	=39	=39	=39	=39	=39	=39	=39
4.D\	.	(16A/LL	.	4r	.	(16ff#\LL	.
.	.	16G/	.	.	.	16ee\	.
.	.	16F#/	.	.	.	16dd\	.
.	.	16G/JJ)	.	.	.	16ee\JJ)	.
.	.	4F#/	.	8r	.	4dd\	.
8cn\L	.	.	.	(8eee\L	.	.	.
8B\	.	4r	.	8ddd\)	.	4r	.
8A\J	.	.	.	8ff#\J	.	.	.
=40	=40	=40	=40	=40	=40	=40	=40
8G\L	.	8B/L	.	(8gg\L	.	2.r	.
8G\	.	8B/	.	8dd\J)	.	.	.
8G\	.	8B/	.	[4dd\	.	.	.
8G\	.	8B/	.	.	.	.	.
8G\	.	8B/	.	16dd\LL]	.	.	.
.	.	.	.	16bb\	.	.	.
8G\J	.	8B/J	.	16aa\	.	.	.
.	.	.	.	16gg\JJ	.	.	.
=41	=41	=41	=41	=41	=41	=41	=41
8A\L	.	8c/L	.	4gg\	.	2.r	.
8A\	.	8c/	.	.	.	.	.
8A\	.	8c/	.	(4.ff#\	.	.	.
8A\	.	8c/J	.	.	.	.	.
8A\	.	8c/L	.	.	.	.	.
8G\J	.	16B/L	.	8gg\)	.	.	.
.	.	16c/JJ	.	.	.	.	.
=42	=42	=42	=42	=42	=42	=42	=42
8F#\L	.	8d/L	.	4aa\	.	[4ccc\	.
8F#\	.	8d/	.	.	.	.	.
8F#\	.	8A/	.	4r	.	8ccc\L]	.
8F#\	.	8A/	.	.	.	8aa\	.
8F#\	.	8A/	.	4r	.	8ff#\	.
8F#\J	.	8A/J	.	.	.	8cc\J	.
=43	=43	=43	=43	=43	=43	=43	=43
8G\L	.	4A/	.	2.r	.	4cc\	.
8G\	.	.	.	.	.	.	.
8G\	.	8G\L	.	.	.	4b\	.
8G\	.	(8g\	.	.	.	.	.
(8A\	.	8f#\	.	.	.	4r	.
8B\J)	.	8g\J)	.	.	.	.	.
=44	=44	=44	=44	=44	=44	=44	=44
8c\L	.	8g\L	.	[4cc\	.	[4ee\	.
8c\	.	8g\	.	.	.	.	.
8c\	.	8g\	.	8cc\L]	.	8ee\L]	.
8c\	.	8g\	.	8ee\J	.	8gg\J	.
!	!	!	!	! 16ff#P/	!	! 16aaP/	!
8c\	.	8g\	.	8eep\L	.	8ggp\L	.
8c\J	.	8g\J	.	16dd\L	.	16ff#\L	.
.	.	.	.	16cc\JJ	.	16ee\JJ	.
=45	=45	=45	=45	=45	=45	=45	=45
8G\L	.	8g\L	.	[4b\	.	[4dd\	.
8G\J	.	8g\J	.	.	.	.	.
4GG/	.	4G/	.	8b\L]	.	8dd\L]	.
.	.	.	.	16cc\L	.	16ee\L	.
.	.	.	.	16dd\JJ	.	16ff#\JJ	.
4r	.	4r	.	16ee\LL	.	16gg\LL	.
.	.	.	.	16ff#\	.	16aa\	.
.	.	.	.	16gg\	.	16bb\	.
.	.	.	.	16aa\JJ	.	16ccc\JJ	.
=46	=46	=46	=46	=46	=46	=46	=46
8r	.	8r	.	(8.bb\L	.	(8.ddd\L	.
8G\L	.	8d\L	.	.	.	.	.
.	.	.	.	32ccc\LL	.	32eee\LL	.
.	.	.	.	32bb\JJJ)	.	32ddd\JJJ)	.
8C\	.	8e\	.	4aa\	.	4ccc\	.
8C\	.	8e\	.	.	.	.	.
8C#\	.	8e\	.	4gg\	.	4bb\	.
8C#\J	.	8e\J	.	.	.	.	.
=47	=47	=47	=47	=47	=47	=47	=47
4.D\	.	4d\	.	4ggT\	.	4bbt\	.
.	.	4r	.	4ff#\	.	4aa\	.
8cn\L	.	.	.	.	.	.	.
8B\	.	4r	.	4r	.	4r	.
8A\J	.	.	.	.	.	.	.
=48	=48	=48	=48	=48	=48	=48	=48
8G\L	.	8b\L	.	2.r	.	4.dd\	.
8G\	.	8b\	.	.	.	.	.
8G\	.	8b\	.	.	.	.	.
8G\	.	8b\	.	.	.	(16ee\LL	.
.	.	.	.	.	.	16dd\JJ)	.
8G\	.	8b\	.	.	.	(16gg\LL	.
.	.	.	.	.	.	16ff#\)	.
8G\J	.	8b\J	.	.	.	(16ee\	.
.	.	.	.	.	.	16dd\JJ)	.
=49	=49	=49	=49	=49	=49	=49	=49
8F#\L	.	8a\L	.	2.r	.	(16dd\LL	.
.	.	.	.	.	.	16ee\J)	.
8F#\	.	8a\	.	.	.	8dd\J	.
8F#\	.	8a\	.	.	.	8r	.
8F#\	.	8a\	.	.	.	8ddd\L	.
8F#\	.	8a\	.	.	.	8ddd\	.
8F#\J	.	8a\J	.	.	.	8ddd\J	.
=50	=50	=50	=50	=50	=50	=50	=50
8E\L	.	4g\	.	[2.gg\	.	(16ddd\LL	.
.	.	.	.	.	.	16bb\J	.
8E\	.	.	.	.	.	8ccc\J)	.
8E\	.	4r	.	.	.	8r	.
8E\	.	.	.	.	.	8ccc\L	.
8E\	.	4r	.	.	.	8ccc\	.
8E\J	.	.	.	.	.	8ccc\J	.
=51	=51	=51	=51	=51	=51	=51	=51
8D\L	.	2.r	.	2.gg\_	.	(16ccc\LL	.
.	.	.	.	.	.	16aa\J	.
8D\	.	.	.	.	.	8bb\J)	.
8D\	.	.	.	.	.	8r	.
8D\	.	.	.	.	.	8bb\L	.
8D\	.	.	.	.	.	8bb\	.
8D\J	.	.	.	.	.	8bb\J	.
=52	=52	=52	=52	=52	=52	=52	=52
8C#/L	.	8r	.	24gg\LL]	.	4aa\	.
.	.	.	.	24ee\	.	.	.
.	.	.	.	24dd\JJ	.	.	.
8C#/	.	4a\	.	24cc#\LL	.	.	.
.	.	.	.	24b\	.	.	.
.	.	.	.	24a\JJ	.	.	.
8C#/	.	.	.	24g/LL	.	4r	.
.	.	.	.	24e/	.	.	.
.	.	.	.	24d/JJ	.	.	.
8C#/	.	4a\	.	24c#/LL	.	.	.
.	.	.	.	24B/	.	.	.
.	.	.	.	24A/JJ	.	.	.
8C#/	.	.	.	16ee\LL	.	4r	.
.	.	.	.	16a\	.	.	.
8C#/J	.	8a\	.	16gg\	.	.	.
.	.	.	.	16ee\JJ	.	.	.
=53	=53	=53	=53	=53	=53	=53	=53
4.D\	.	(16a\LL	.	(16ff#\LL	.	2.r	.
.	.	16g\	.	16ee\	.	.	.
.	.	16f#\	.	16dd\	.	.	.
.	.	16g\JJ)	.	16ee\JJ)	.	.	.
.	.	8f#'\L	.	4dd\	.	.	.
8cn\L	.	(8ee\	.	.	.	.	.
8B\	.	8dd\)	.	4r	.	.	.
8A\J	.	8f#'\J	.	.	.	.	.
=54	=54	=54	=54	=54	=54	=54	=54
4.G\	.	(16g\LL	.	[2.dd\	.	(16bb\LL	.
.	.	16f#\	.	.	.	16aa\	.
.	.	16g\	.	.	.	16bb\	.
.	.	16a\JJ	.	.	.	16ccc\JJ	.
.	.	8b\L)	.	.	.	8ddd\L)	.
8G\L	.	8b'\	.	.	.	8gg'\	.
8G\	.	8b'\	.	.	.	8gg'\	.
8G\J	.	8b'\J	.	.	.	8gg'\J	.
=55	=55	=55	=55	=55	=55	=55	=55
8F#\L	.	(16cc\LL	.	2dd\_	.	(16ccc\LL	.
.	.	16a\)	.	.	.	16aa\)	.
8G\J	.	(16b\	.	.	.	(16bb\	.
.	.	16g\JJ)	.	.	.	16gg\JJ)	.
!	!	!	!	!	!	! 16ggP/	!
4d\	.	8f#\L	.	.	.	8ff#p\L	.
.	.	(16a\L	.	.	.	(16aa\L	.
.	.	16f#\JJ)	.	.	.	16ff#\JJ)	.
16D/LL	.	16d\LL	.	8.dd/L]	.	4dd\	.
16C/	.	16e\	.	.	.	.	.
16BB/	.	16d\	.	.	.	.	.
16AA/JJ	.	16c\JJ	.	16f#/Jk	.	.	.
=56	=56	=56	=56	=56	=56	=56	=56
4.GG/	.	(16B/LL	.	(16g/LL	.	[2.ddd\	.
.	.	16A/	.	16a/	.	.	.
.	.	16G/	.	16b/	.	.	.
.	.	16A/JJ	.	16cc/JJ	.	.	.
.	.	8B/L)	.	8dd/L)	.	.	.
8G\L	.	8B'/	.	8g'/	.	.	.
8G\	.	8B'/	.	8g'/	.	.	.
8G\J	.	8B'/J	.	8g'/J	.	.	.
=57	=57	=57	=57	=57	=57	=57	=57
8F#\L	.	(16c/LL	.	(16cc/LL	.	2.ddd\]	.
.	.	16A/)	.	16a/)	.	.	.
8G\J	.	(16B/	.	(16b/	.	.	.
.	.	16G/JJ)	.	16g/JJ)	.	.	.
[4D\	.	8F#/L	.	8f#/L	.	.	.
.	.	(16A/L	.	(16a/L	.	.	.
.	.	16F#/JJ)	.	16f#/JJ)	.	.	.
16D/LL]	.	16D/LL	.	4d/	.	.	.
16C/	.	(16e/	.	.	.	.	.
16BB/	.	16d/)	.	.	.	.	.
16AA/JJ	.	16F#/JJ	.	.	.	.	.
=58	=58	=58	=58	=58	=58	=58	=58
8BB/L	.	8G/L	.	8d/L	.	16r	.
.	.	.	.	.	.	8g\L	.
8BB/	.	8G/	.	8d/	.	.	.
.	.	.	.	.	.	8b\	.
8BB/	.	8d/	.	8g/	.	.	.
.	.	.	.	.	.	8dd\	.
8BB/	.	8d/	.	8g/	.	.	.
.	.	.	.	.	.	8gg\	.
8BB/	.	8d/	.	8g/	.	.	.
.	.	.	.	.	.	8ddd\	.
8BB/J	.	8d/J	.	8g/J	.	.	.
.	.	.	.	.	.	16ffn\Jk	.
=59	=59	=59	=59	=59	=59	=59	=59
8C/	.	8c\	.	8g/	.	24ee\LL	.
.	.	.	.	.	.	24gg\	.
.	.	.	.	.	.	24ee\JJ	.
8r	.	8r	.	8r	.	24cc\LL	.
.	.	.	.	.	.	24ee\	.
.	.	.	.	.	.	24cc\JJ	.
4r	.	4r	.	4r	.	24g/LL	.
.	.	.	.	.	.	24cc/	.
.	.	.	.	.	.	24g/JJ	.
.	.	.	.	.	.	24e/LL	.
.	.	.	.	.	.	24g/	.
.	.	.	.	.	.	24e/JJ	.
8r	.	8r	.	8r	.	16c/LL	.
.	.	.	.	.	.	16gg\	.
8C/	.	8e\	.	8g/	.	16ee\	.
.	.	.	.	.	.	16cc\JJ	.
=60	=60	=60	=60	=60	=60	=60	=60
8D\L	.	8d\L	.	8g/	.	(32b\LLL	.
.	.	.	.	.	.	32dd\	.
.	.	.	.	.	.	32cc\	.
.	.	.	.	.	.	32b\JJJ	.
8D\	.	8d\	.	4g/	.	32cc\LLL	.
.	.	.	.	.	.	32dd\	.
.	.	.	.	.	.	32ee\	.
.	.	.	.	.	.	32ff#\JJJ	.
8D\	.	8d\	.	.	.	32gg\LLL	.
.	.	.	.	.	.	32aa\	.
.	.	.	.	.	.	32bb\	.
.	.	.	.	.	.	32ccc\JJJ	.
8D\	.	8d\	.	16bb\	.	16ddd\)	.
.	.	.	.	16r	.	16r	.
8D\	.	8d\	.	4ff#t\	.	4aaT\	.
8D\J	.	8d\J	.	.	.	.	.
=61	=61	=61	=61	=61	=61	=61	=61
4GG/	.	4d\	.	4gg\	.	8gg'\L	.
.	.	.	.	.	.	(48aa'\LL	.
.	.	.	.	.	.	48bb'\	.
.	.	.	.	.	.	48ccc'\	.
.	.	.	.	.	.	48ddd'\	.
.	.	.	.	.	.	48eee'\	.
.	.	.	.	.	.	48fff#'\JJJ)	.
16r	.	16r	.	4r	.	8ggg'\	.
(16G\LL	.	(16b\LL	.	.	.	.	.
16F#\	.	16a\	.	.	.	8r	.
16G\JJ	.	16b\JJ	.	.	.	.	.
16A\LL	.	16cc\LL	.	4r	.	4r	.
16G\	.	16b\	.	.	.	.	.
16F#\	.	16a\	.	.	.	.	.
16G\JJ)	.	16b\JJ)	.	.	.	.	.
=62	=62	=62	=62	=62	=62	=62	=62
4E\	.	4b\	.	8gg'\L	.	2.r	.
.	.	.	.	(48aa'\LL	.	.	.
.	.	.	.	48bb'\	.	.	.
.	.	.	.	48ccc'\	.	.	.
.	.	.	.	48ddd'\	.	.	.
.	.	.	.	48eee'\	.	.	.
.	.	.	.	48fff#'\JJJ)	.	.	.
16r	.	16r	.	8ggg'\	.	.	.
(16E\LL	.	(16g\LL	.	.	.	.	.
16D#\	.	16f#\	.	8r	.	.	.
16E\JJ	.	16g\JJ	.	.	.	.	.
16F#\LL	.	16a\LL	.	4r	.	.	.
16E\	.	16g\	.	.	.	.	.
16D#\	.	16f#\	.	.	.	.	.
16E\JJ)	.	16g\JJ)	.	.	.	.	.
=63	=63	=63	=63	=63	=63	=63	=63
4BB/	.	8G'/L	.	2.ddd\	.	2.fffn\	.
.	.	(48A'/LL	.	.	.	.	.
.	.	48B'/	.	.	.	.	.
.	.	48c'/	.	.	.	.	.
.	.	48d'/	.	.	.	.	.
.	.	48e'/	.	.	.	.	.
.	.	48f#'/JJJ)	.	.	.	.	.
8r	.	8g'/L	.	.	.	.	.
8BB'/L	.	8G'/	.	.	.	.	.
8BB'/	.	8G'/	.	.	.	.	.
8BB'/J	.	8G'/J	.	.	.	.	.
=64	=64	=64	=64	=64	=64	=64	=64
!	!	!	!	! 16dddP/	!	! 16fffnP/	!
8C/L	.	8G\L	.	8cccp\L	.	8eeep\L	.
8C/	.	8e\	.	16bb\L	.	16ddd\L	.
.	.	.	.	16aa\JJ	.	16ccc\JJ	.
8D/	.	8d\	.	4gg\	.	4bb\	.
8D/	.	8d\	.	.	.	.	.
8D/	.	8d\	.	(8.ff#t\L	.	(8.aaT\L	.
8D/J	.	8d\J	.	.	.	.	.
.	.	.	.	32ee\LL	.	32gg\LL	.
.	.	.	.	32ff#\JJJ)	.	32aa\JJJ)	.
=65	=65	=65	=65	=65	=65	=65	=65
[2.G\	.	8d\L	.	4gg\	.	8gg'\L	.
.	.	(8b\	.	.	.	(8dd\	.
.	.	8cc\	.	4r	.	8ee\	.
.	.	8b\	.	.	.	8dd\	.
.	.	8cc\	.	16r	.	8ee\	.
!	!	!	!	! 32dddP/	!	!	!
.	.	.	.	16cccp\LL	.	.	.
!	!	!	!	! 32bbP/	!	!	!
.	.	8a\J)	.	16aap\	.	8cc\J)	.
!	!	!	!	! 32ggP/	!	!	!
.	.	.	.	16ff#p\JJ	.	.	.
=66	=66	=66	=66	=66	=66	=66	=66
2.G\_	.	8g'\L	.	8gg'\L	.	4b\	.
.	.	(8b\	.	(8dd\	.	.	.
.	.	8cc\	.	8ee\	.	4r	.
.	.	8b\	.	8dd\	.	.	.
.	.	8cc\	.	8ee\	.	16r	.
!	!	!	!	!	!	! 32dddP/	!
.	.	.	.	.	.	16cccp\LL	.
!	!	!	!	!	!	! 32bbP/	!
.	.	8a\J)	.	8cc\J)	.	16aap\	.
!	!	!	!	!	!	! 32ggP/	!
.	.	.	.	.	.	16ff#p\JJ	.
=67	=67	=67	=67	=67	=67	=67	=67
(2G\]	.	(2a\	.	(2cc\	.	(2ff#\	.
8GG/)	.	8g\)	.	8b\)	.	8gg\)	.
8r	.	8r	.	8r	.	8r	.
==:|!	==:|!	==:|!	==:|!	==:|!	==:|!	==:|!	==:|!
*-	*-	*-	*-	*-	*-	*-	*-
!!!RWG: Appoggiaturas of spine 'Violino I' need manual editing in measures: 2, 16, 25, 27, 27, 27, 35, 35, 38, 38, 44, 55, 64, 66, 66, 66
!!!RWG: Appoggiaturas of spine 'Violino II' need manual editing in measures: 25, 26, 26, 26, 37, 37, 44, 64, 65, 65, 65
!!!RWG: Key is interpreted using the Humdrum key tool.
!!!AFT: stage2
!!!END: 1993/08/16
!!!KEY: 2304854044
!!!EMD: Converted from MuseData to Humdrum Dec 16, 2000, by Andreas Kornstaedt using muse2kern.
!!!EMD: Manual editing by Craig Sapp, Nov 2001
!!!YEC: Copyright (c) 1994, 2000 Center for Computer Assisted Research in the Humanities
!!!YEM: Rights to all derivative editions reserved.
!!!YEM: Refer to licensing agreement for further details.
!!!YEN: United States of America
